media/icon/car.svg

<svg width="126" height="126" viewBox="0 0 126 126" fill="none" xmlns="http://www.w3.org/2000/svg">
<path d="M112.718 58.7213L107.31 51.2138C106.1 49.5139 104.502 48.1271 102.648 47.1684C100.795 46.2097 98.7392 45.7068 96.6525 45.7013H73.6575V34.4663C73.6575 30.9853 72.2747 27.6469 69.8133 25.1855C67.3519 22.7241 64.0135 21.3413 60.5325 21.3413H23.94C20.462 21.351 17.1293 22.7369 14.6699 25.1962C12.2106 27.6556 10.8247 30.9883 10.815 34.4663V86.6513C10.815 88.7399 11.6447 90.7429 13.1215 92.2198C14.5984 93.6966 16.6014 94.5263 18.69 94.5263H25.095C25.4914 97.3352 26.889 99.9065 29.0304 101.767C31.1719 103.627 33.9132 104.652 36.75 104.652C39.5868 104.652 42.3281 103.627 44.4696 101.767C46.611 99.9065 48.0086 97.3352 48.405 94.5263H77.595C77.9914 97.3352 79.389 99.9065 81.5304 101.767C83.6719 103.627 86.4132 104.652 89.25 104.652C92.0868 104.652 94.8281 103.627 96.9696 101.767C99.1111 99.9065 100.509 97.3352 100.905 94.5263H107.31C109.399 94.5263 111.402 93.6966 112.878 92.2198C114.355 90.7429 115.185 88.7399 115.185 86.6513V66.3338C115.175 63.6013 114.312 60.9401 112.718 58.7213ZM36.75 99.4088C35.4521 99.4088 34.1833 99.0239 33.1041 98.3028C32.0249 97.5817 31.1837 96.5568 30.687 95.3577C30.1903 94.1585 30.0604 92.839 30.3136 91.566C30.5668 90.293 31.1918 89.1237 32.1096 88.2059C33.0274 87.2881 34.1967 86.6631 35.4697 86.4099C36.7427 86.1567 38.0622 86.2867 39.2614 86.7833C40.4605 87.2801 41.4854 88.1212 42.2065 89.2004C42.9276 90.2796 43.3125 91.5484 43.3125 92.8463C43.3125 94.5868 42.6211 96.256 41.3904 97.4867C40.1597 98.7174 38.4905 99.4088 36.75 99.4088ZM68.4075 89.2763H48.0375C47.2731 86.883 45.7677 84.7945 43.7388 83.3127C41.7099 81.8308 39.2625 81.0322 36.75 81.0322C34.2376 81.0322 31.7901 81.8308 29.7612 83.3127C27.7323 84.7945 26.2269 86.883 25.4625 89.2763H18.69C17.9938 89.2763 17.3261 88.9997 16.8338 88.5075C16.3416 88.0152 16.065 87.3475 16.065 86.6513V34.4663C16.065 32.3777 16.8947 30.3747 18.3715 28.8978C19.8484 27.421 21.8514 26.5913 23.94 26.5913H60.5325C62.6211 26.5913 64.6241 27.421 66.101 28.8978C67.5778 30.3747 68.4075 32.3777 68.4075 34.4663V89.2763ZM89.25 99.4088C87.9521 99.4088 86.6833 99.0239 85.6041 98.3028C84.5249 97.5817 83.6837 96.5568 83.187 95.3577C82.6903 94.1585 82.5604 92.839 82.8136 91.566C83.0668 90.293 83.6918 89.1237 84.6096 88.2059C85.5274 87.2881 86.6967 86.6631 87.9697 86.4099C89.2427 86.1567 90.5622 86.2867 91.7614 86.7833C92.9605 87.2801 93.9854 88.1212 94.7065 89.2004C95.4276 90.2796 95.8125 91.5484 95.8125 92.8463C95.8125 94.5868 95.1211 96.256 93.8904 97.4867C92.6597 98.7174 90.9905 99.4088 89.25 99.4088ZM109.935 86.6513C109.935 87.3475 109.658 88.0152 109.166 88.5075C108.674 88.9997 108.006 89.2763 107.31 89.2763H100.538C99.7731 86.883 98.2677 84.7945 96.2388 83.3127C94.2099 81.8308 91.7625 81.0322 89.25 81.0322C86.7376 81.0322 84.2901 81.8308 82.2612 83.3127C80.2323 84.7945 78.7269 86.883 77.9625 89.2763H73.6575V50.9513H96.6525C97.9048 50.9614 99.1371 51.266 100.25 51.8406C101.362 52.4152 102.324 53.2436 103.058 54.2588L108.465 61.7663C109.409 63.1035 109.922 64.6971 109.935 66.3338V86.6513Z" fill="white"/>
<path d="M94.6522 64.0763H84.1522C83.4561 64.0763 82.7884 63.7997 82.2961 63.3075C81.8038 62.8152 81.5273 62.1475 81.5273 61.4513C81.5273 60.7551 81.8038 60.0874 82.2961 59.5951C82.7884 59.1029 83.4561 58.8263 84.1522 58.8263H94.6522C95.3484 58.8263 96.0161 59.1029 96.5084 59.5951C97.0007 60.0874 97.2772 60.7551 97.2772 61.4513C97.2772 62.1475 97.0007 62.8152 96.5084 63.3075C96.0161 63.7997 95.3484 64.0763 94.6522 64.0763Z" fill="white"/>
</svg>

<svg xmlns="http://www.w3.org/2000/svg" width="126" height="126" fill="none"><path fill="#fff" d="m112.718 58.721-5.408-7.507A13.12 13.12 0 0 0 96.653 45.7H73.657V34.466a13.125 13.125 0 0 0-13.124-13.125H23.94a13.16 13.16 0 0 0-13.125 13.125v52.185a7.875 7.875 0 0 0 7.875 7.875h6.405a11.77 11.77 0 0 0 23.31 0h29.19a11.77 11.77 0 0 0 23.31 0h6.405a7.87 7.87 0 0 0 7.875-7.875V66.334a13.13 13.13 0 0 0-2.467-7.613M36.75 99.41a6.562 6.562 0 1 1 0-13.125 6.562 6.562 0 0 1 0 13.125m31.658-10.133h-20.37a11.849 11.849 0 0 0-22.575 0H18.69a2.625 2.625 0 0 1-2.625-2.625V34.466a7.875 7.875 0 0 1 7.875-7.875h36.593a7.875 7.875 0 0 1 7.874 7.875zM89.25 99.41a6.562 6.562 0 1 1 0-13.125 6.562 6.562 0 0 1 0 13.125m20.685-12.758a2.626 2.626 0 0 1-2.625 2.625h-6.772a11.85 11.85 0 0 0-11.288-8.244 11.85 11.85 0 0 0-11.287 8.244h-4.305V50.951h22.995a7.98 7.98 0 0 1 6.405 3.308l5.407 7.507a8.03 8.03 0 0 1 1.47 4.568z"/><path fill="#fff" d="M94.652 64.076h-10.5a2.625 2.625 0 0 1 0-5.25h10.5a2.625 2.625 0 0 1 0 5.25"/></svg>
